X: 28599
T: Musette
R: waltz
M: 3/4
K: Gminor
DE|:D2G2A2|B2A2G2|d4e2|dc BA G^F|D2G2A2|B2A2G2|e4d2|c4cd|
e2c2d2|e2d2c2|d4B2|G4DE|D2^C2D2|B4A2|1 G2D2B,A,|G,4DE:|2 G2B2d2|g4^f2||
|:f6|f2g2e2|d6|d2e2d2|c4d2|e2d2c2|B4A2|G3A Bc|
d6|d2c3B|A2=E2F2|^F6|D2^C2D2|B4A2|G2B2d2|1 g4^f2:|2 g4g^f||
|:g4d^c|d4BA|B4G^F|G2B2d2|e4d2|c2e2g2|d4c2|B4A2|
D2^F2G2|A6|D2G2A2|B4DE|D2^C2D2|B4A2|1 G2B2d2|g4g^f:|2 G2D2B,A,|G,2G,4||
z2|:G2B2c2|d2c2B2|B4A2|G6|G2B2c2|d2c2B2|c4B2|A6|
c2A2B2|c2B2A2|B6-|B2A2G2|^F2G2A2|d4c2|1 B2A2^F2|G6:|2 B2D2^F2|G6||
|:A6|A2d2c2|B6|B2c2B2|A4B2|c2B2A2|d4c2|B6|
B6|B2A3G|^F2G2^G2|A6|^F2G2A2|d4c2|B2D2^F2|1 G6:|2 G6||
|:G4A2|B2D2^F2|G2d2c2|B4=B2|c4B2|A2c2e2|B4A2|G6|
^F2A2B2|c6|B4c2|d6|^F2G2A2|d4c2|1 B2D2^F2|G6:|2 B2A2^F2|G2G4||

